; generated by Slic3r 1.3.0 on 2020-12-07 at 18:25:20

; external perimeters extrusion width = 0.33mm (0.86mm^3/s)
; perimeters extrusion width = 0.40mm (2.12mm^3/s)
; infill extrusion width = 0.38mm (1.99mm^3/s)
; solid infill extrusion width = 0.40mm (1.41mm^3/s)
; top infill extrusion width = 0.40mm (1.06mm^3/s)
; support material extrusion width = 0.33mm (1.44mm^3/s)

M190 S75 ; set bed temperature and wait for it to be reached
M104 S240 ; set temperature
G28 ; home all axes
G1 Z5 F5000 ; lift nozzle

; Filament gcode

M109 S240 ; set temperature and wait for it to be reached
G21 ; set units to millimeters
G90 ; use absolute coordinates
M82 ; use absolute distances for extrusion
G92 E0
G1 Z0.300 F1800.000
G1 E-2.00000 F2400.00000
G92 E0
G1 X78.488 Y118.577 F1800.000
G1 E2.00000 F2400.00000
G1 F1800
G1 X86.488 Y114.577 E2.71703
G1 X89.232 Y113.650 E2.94922
G1 X92.623 Y113.561 E3.22117
G1 X114.623 Y116.561 E5.00116
G1 X116.609 Y117.031 E5.16471
G1 X129.109 Y121.305 E6.22375
G1 X131.694 Y122.610 E6.45594
G1 X133.827 Y124.570 E6.68813
G1 X135.377 Y127.108 E6.92654
G1 X136.001 Y128.576 E7.05438
G1 X136.391 Y129.602 E7.14240
G1 X136.745 Y130.679 E7.23328
G1 X137.081 Y131.908 E7.33538
G1 X137.300 Y132.902 E7.41706
G1 X137.436 Y133.667 E7.47927
G1 X137.567 Y134.616 E7.55611
G1 X137.658 Y135.634 E7.63805
G1 X137.698 Y136.543 E7.71102
G1 X137.698 Y137.457 E7.78422
G1 X137.658 Y138.366 E7.85721
G1 X137.558 Y139.456 E7.94491
G1 X137.418 Y140.447 E8.02519
G1 X137.246 Y141.365 E8.10004
G1 X137.081 Y142.093 E8.15993
G1 X136.823 Y143.055 E8.23977
G1 X136.550 Y143.932 E8.31339
G1 X136.214 Y144.881 E8.39407
G1 X135.889 Y145.697 E8.46446
G1 X135.377 Y146.892 E8.56870
G1 X133.877 Y149.369 E8.80088
G1 X131.759 Y151.345 E9.03307
G1 X129.684 Y152.479 E9.22266
G1 X97.184 Y165.753 E12.03701
G1 X93.200 Y166.536 E12.36247
G1 X91.200 Y166.536 E12.52280
G1 X88.645 Y166.221 E12.72920
G1 X80.645 Y164.221 E13.39027
G1 X77.958 Y163.139 E13.62245
G1 X75.668 Y161.366 E13.85464
G1 X73.946 Y159.037 E14.08682
G1 X72.925 Y156.327 E14.31901
G1 X72.664 Y154.000 E14.50672
G1 X72.664 Y128.000 E16.59105
G1 X73.062 Y125.131 E16.82323
G1 X74.227 Y122.479 E17.05542
G1 X76.069 Y120.244 E17.28760
G1 X78.451 Y118.602 E17.51956
G1 X79.431 Y119.519 F1800.000
G1 F1800
G1 X79.612 Y119.338 E17.54085
G1 X83.225 Y119.338 E17.84129
G1 X83.322 Y119.303 E17.84984
G1 X88.727 Y114.768 E18.43653
G1 X108.946 Y118.336 E20.14367
G1 X116.788 Y118.338 E20.79574
G1 X120.708 Y122.258 E21.25669
G1 X120.815 Y122.303 E21.26633
G1 X127.064 Y122.303 E21.78598
G1 X129.500 Y123.033 E21.99740
G1 X131.769 Y124.527 E22.22327
G1 X133.407 Y126.482 E22.43540
G1 X134.175 Y128.251 E22.59573
G1 X134.244 Y128.348 E22.60562
G1 X134.507 Y129.036 E22.66685
G1 X134.604 Y129.176 E22.68104
G1 X134.742 Y129.590 E22.71730
G1 X135.215 Y130.687 E22.81660
G1 X135.218 Y130.833 E22.82880
G1 X135.458 Y131.437 E22.88281
G1 X135.450 Y131.648 E22.90041
G1 X135.682 Y132.312 E22.95890
G1 X135.674 Y132.471 E22.97213
G1 X135.868 Y133.082 E23.02546
G1 X135.844 Y133.314 E23.04485
G1 X136.023 Y133.985 E23.10262
G1 X135.989 Y134.218 E23.12218
G1 X136.137 Y134.903 E23.18045
G1 X136.094 Y135.136 E23.20013
G1 X136.154 Y135.349 E23.21858
G1 X136.154 Y135.501 E23.23122
G1 X136.209 Y135.833 E23.25913
G1 X136.156 Y136.063 E23.27876
G1 X136.218 Y136.290 E23.29838
G1 X136.207 Y136.508 E23.31646
G1 X136.236 Y136.768 E23.33827
G1 X136.177 Y136.955 E23.35454
G1 X136.177 Y137.045 E23.36208
G1 X136.236 Y137.232 E23.37832
G1 X136.207 Y137.492 E23.40013
G1 X136.218 Y137.710 E23.41829
G1 X136.156 Y137.938 E23.43790
G1 X136.209 Y138.169 E23.45756
G1 X136.154 Y138.499 E23.48543
G1 X136.154 Y138.651 E23.49806
G1 X136.094 Y138.865 E23.51654
G1 X136.137 Y139.097 E23.53618
G1 X136.044 Y139.588 E23.57767
G1 X135.989 Y139.782 E23.59450
G1 X136.023 Y140.015 E23.61405
G1 X135.844 Y140.686 E23.67183
G1 X135.868 Y140.918 E23.69123
G1 X135.674 Y141.530 E23.74458
G1 X135.682 Y141.689 E23.75782
G1 X135.450 Y142.353 E23.81629
G1 X135.458 Y142.564 E23.83386
G1 X135.217 Y143.167 E23.88787
G1 X135.214 Y143.314 E23.90006
G1 X134.743 Y144.410 E23.99931
G1 X134.604 Y144.824 E24.03563
G1 X134.507 Y144.965 E24.04982
G1 X134.244 Y145.652 E24.11104
G1 X134.174 Y145.749 E24.12098
G1 X133.402 Y147.524 E24.28194
G1 X131.771 Y149.470 E24.49305
G1 X129.495 Y150.968 E24.71961
G1 X127.063 Y151.697 E24.93072
G1 X120.815 Y151.698 E25.45027
G1 X120.707 Y151.742 E25.45991
G1 X116.788 Y155.662 E25.92084
G1 X110.640 Y155.662 E26.43200
G1 X110.564 Y155.683 E26.43860
G1 X96.647 Y164.033 E27.78813
G1 X94.377 Y164.662 E27.98393
G1 X87.612 Y164.662 E28.54645
G1 X85.657 Y162.706 E28.77641
G1 X85.549 Y162.662 E28.78606
G1 X79.612 Y162.662 E29.27974
G1 X74.538 Y157.588 E29.87639
G1 X74.538 Y142.412 E31.13824
G1 X75.830 Y141.121 E31.29010
G1 X75.830 Y140.879 E31.31019
G1 X74.538 Y139.588 E31.46205
G1 X74.538 Y124.412 E32.72390
G1 X79.399 Y119.551 E33.29551
G1 X79.824 Y119.912 F1800.000
G1 F1800
G1 X79.842 Y119.894 E33.29767
G1 X83.428 Y119.894 E33.59578
G1 X83.524 Y119.859 E33.60433
G1 X88.886 Y115.360 E34.18629
G1 X108.897 Y118.892 E35.87594
G1 X116.558 Y118.894 E36.51291
G1 X120.478 Y122.814 E36.97386
G1 X120.585 Y122.858 E36.98351
G1 X126.983 Y122.858 E37.51551
G1 X129.262 Y123.542 E37.71337
G1 X131.395 Y124.946 E37.92574
G1 X132.929 Y126.776 E38.12426
G1 X133.691 Y128.535 E38.28361
G1 X133.755 Y128.625 E38.29285
G1 X134.015 Y129.304 E38.35332
G1 X134.105 Y129.435 E38.36648
G1 X134.223 Y129.788 E38.39743
G1 X134.649 Y130.778 E38.48702
G1 X134.653 Y130.916 E38.49856
G1 X134.891 Y131.514 E38.55207
G1 X134.884 Y131.713 E38.56864
G1 X135.113 Y132.368 E38.62634
G1 X135.107 Y132.518 E38.63886
G1 X135.299 Y133.124 E38.69164
G1 X135.276 Y133.342 E38.70992
G1 X135.453 Y134.004 E38.76685
G1 X135.422 Y134.223 E38.78525
G1 X135.568 Y134.897 E38.84265
G1 X135.528 Y135.116 E38.86113
G1 X135.597 Y135.456 E38.88995
G1 X135.641 Y135.802 E38.91901
G1 X135.592 Y136.018 E38.93741
G1 X135.619 Y136.257 E38.95742
G1 X135.656 Y136.371 E38.96739
G1 X135.649 Y136.522 E38.97995
G1 X135.671 Y136.713 E38.99591
G1 X135.626 Y136.869 E39.00941
G1 X135.618 Y137.009 E39.02110
G1 X135.632 Y137.167 E39.03423
G1 X135.671 Y137.287 E39.04473
G1 X135.649 Y137.478 E39.06070
G1 X135.656 Y137.629 E39.07332
G1 X135.619 Y137.744 E39.08334
G1 X135.592 Y137.982 E39.10329
G1 X135.641 Y138.199 E39.12173
G1 X135.597 Y138.545 E39.15073
G1 X135.528 Y138.885 E39.17959
G1 X135.568 Y139.103 E39.19803
G1 X135.422 Y139.778 E39.25543
G1 X135.453 Y139.997 E39.27383
G1 X135.276 Y140.658 E39.33076
G1 X135.299 Y140.877 E39.34905
G1 X135.107 Y141.482 E39.40185
G1 X135.113 Y141.633 E39.41437
G1 X134.884 Y142.288 E39.47207
G1 X134.891 Y142.486 E39.48860
G1 X134.652 Y143.084 E39.54212
G1 X134.649 Y143.223 E39.55365
G1 X134.223 Y144.212 E39.64319
G1 X134.104 Y144.565 E39.67419
G1 X134.015 Y144.696 E39.68736
G1 X133.755 Y145.375 E39.74781
G1 X133.690 Y145.466 E39.75710
G1 X132.924 Y147.230 E39.91703
G1 X131.397 Y149.051 E40.11460
G1 X129.258 Y150.460 E40.32762
G1 X126.981 Y151.142 E40.52519
G1 X120.584 Y151.142 E41.05710
G1 X120.477 Y151.186 E41.06675
G1 X116.558 Y155.106 E41.52767
G1 X110.486 Y155.106 E42.03249
G1 X110.410 Y155.127 E42.03909
G1 X96.426 Y163.518 E43.39513
G1 X94.302 Y164.106 E43.57838
G1 X87.842 Y164.106 E44.11549
G1 X85.887 Y162.150 E44.34545
G1 X85.780 Y162.106 E44.35510
G1 X79.842 Y162.106 E44.84878
G1 X75.094 Y157.358 E45.40715
G1 X75.094 Y142.642 E46.63073
G1 X76.616 Y141.121 E46.80966
G1 X76.616 Y140.879 E46.82975
G1 X75.094 Y139.358 E47.00867
G1 X75.094 Y124.642 E48.23225
G1 X79.792 Y119.944 E48.78473
G1 X80.072 Y120.450 F1800.000
G1 F1800
G1 X83.630 Y120.450 E49.08051
G1 X83.726 Y120.414 E49.08906
G1 X89.045 Y115.952 E49.66629
G1 X108.849 Y119.447 E51.33844
G1 X116.328 Y119.450 E51.96032
G1 X120.247 Y123.369 E52.42127
G1 X120.355 Y123.414 E52.43092
G1 X126.901 Y123.414 E52.97527
G1 X129.024 Y124.051 E53.15958
G1 X131.022 Y125.366 E53.35845
G1 X132.450 Y127.070 E53.54337
G1 X133.207 Y128.818 E53.70172
G1 X133.266 Y128.903 E53.71031
G1 X133.503 Y129.521 E53.76539
G1 X133.605 Y129.694 E53.78208
G1 X133.703 Y129.986 E53.80770
G1 X134.083 Y130.868 E53.88758
G1 X134.088 Y130.999 E53.89846
G1 X134.324 Y131.591 E53.95148
G1 X134.318 Y131.778 E53.96701
G1 X134.544 Y132.424 E54.02393
G1 X134.539 Y132.566 E54.03573
G1 X134.729 Y133.165 E54.08798
G1 X134.709 Y133.370 E54.10513
G1 X134.883 Y134.022 E54.16123
G1 X134.854 Y134.227 E54.17847
G1 X134.998 Y134.892 E54.23500
G1 X134.961 Y135.096 E54.25228
G1 X135.073 Y135.772 E54.30922
G1 X135.037 Y135.919 E54.32176
G1 X135.036 Y136.038 E54.33167
G1 X135.095 Y136.452 E54.36647
G1 X135.106 Y136.658 E54.38357
G1 X135.076 Y136.766 E54.39294
G1 X135.062 Y137.009 E54.41318
G1 X135.076 Y137.234 E54.43189
G1 X135.105 Y137.342 E54.44125
G1 X135.036 Y137.962 E54.49305
G1 X135.037 Y138.083 E54.50311
G1 X135.073 Y138.229 E54.51564
G1 X134.961 Y138.904 E54.57256
G1 X134.998 Y139.109 E54.58981
G1 X134.854 Y139.773 E54.64634
G1 X134.883 Y139.978 E54.66357
G1 X134.708 Y140.630 E54.71967
G1 X134.729 Y140.836 E54.73684
G1 X134.539 Y141.435 E54.78910
G1 X134.544 Y141.577 E54.80091
G1 X134.318 Y142.223 E54.85782
G1 X134.324 Y142.409 E54.87332
G1 X134.087 Y143.001 E54.92634
G1 X134.083 Y143.132 E54.93721
G1 X133.703 Y144.014 E55.01704
G1 X133.605 Y144.306 E55.04273
G1 X133.504 Y144.478 E55.05931
G1 X133.266 Y145.098 E55.11447
G1 X133.206 Y145.183 E55.12311
G1 X132.446 Y146.936 E55.28201
G1 X131.024 Y148.632 E55.46604
G1 X129.020 Y149.951 E55.66552
G1 X126.900 Y150.586 E55.84955
G1 X120.354 Y150.586 E56.39382
G1 X120.247 Y150.631 E56.40347
G1 X116.328 Y154.550 E56.86439
G1 X110.333 Y154.550 E57.36287
G1 X110.256 Y154.572 E57.36947
G1 X96.205 Y163.003 E58.73203
G1 X94.226 Y163.550 E58.90271
G1 X88.072 Y163.550 E59.41441
G1 X86.117 Y161.595 E59.64437
G1 X86.010 Y161.550 E59.65402
G1 X80.072 Y161.550 E60.14770
G1 X75.650 Y157.128 E60.66781
G1 X75.650 Y142.872 E61.85312
G1 X77.401 Y141.121 E62.05910
G1 X77.401 Y140.879 E62.07919
G1 X75.650 Y139.128 E62.28518
G1 X75.650 Y124.872 E63.47049
G1 X80.041 Y120.481 E63.98685
G1 X80.303 Y121.005 F1800.000
G1 F1800
G1 X84.034 Y121.005 E64.29714
G1 X84.205 Y120.834 E64.31723
G1 X84.205 Y120.738 E64.32523
G1 X89.203 Y116.545 E64.86772
G1 X108.800 Y120.003 E66.52237
G1 X116.097 Y120.005 E67.12916
G1 X120.017 Y123.925 E67.59011
G1 X120.124 Y123.969 E67.59976
G1 X126.820 Y123.969 E68.15647
G1 X128.786 Y124.559 E68.32721
G1 X130.649 Y125.785 E68.51259
G1 X131.972 Y127.364 E68.68390
G1 X132.723 Y129.102 E68.84126
G1 X132.778 Y129.180 E68.84921
G1 X132.988 Y129.730 E68.89822
G1 X133.106 Y129.953 E68.91914
G1 X133.184 Y130.184 E68.93944
G1 X133.518 Y130.959 E69.00962
G1 X133.523 Y131.082 E69.01984
G1 X133.757 Y131.669 E69.07236
G1 X133.752 Y131.843 E69.08685
G1 X133.975 Y132.480 E69.14300
G1 X133.971 Y132.614 E69.15408
G1 X134.159 Y133.206 E69.20579
G1 X134.141 Y133.398 E69.22183
G1 X134.313 Y134.040 E69.27709
G1 X134.287 Y134.232 E69.29316
G1 X134.429 Y134.886 E69.34882
G1 X134.402 Y135.021 E69.36022
G1 X134.408 Y135.148 E69.37079
G1 X134.505 Y135.742 E69.42083
G1 X134.483 Y135.841 E69.42927
G1 X134.481 Y136.067 E69.44806
G1 X134.540 Y136.602 E69.49286
G1 X134.505 Y136.992 E69.52536
G1 X134.540 Y137.398 E69.55927
G1 X134.481 Y137.933 E69.60401
G1 X134.483 Y138.160 E69.62295
G1 X134.505 Y138.259 E69.63138
G1 X134.408 Y138.853 E69.68142
G1 X134.402 Y138.980 E69.69196
G1 X134.428 Y139.114 E69.70333
G1 X134.287 Y139.768 E69.75899
G1 X134.313 Y139.960 E69.77507
G1 X134.141 Y140.602 E69.83033
G1 X134.159 Y140.794 E69.84638
G1 X133.971 Y141.387 E69.89810
G1 X133.975 Y141.520 E69.90919
G1 X133.752 Y142.158 E69.96532
G1 X133.756 Y142.331 E69.97979
G1 X133.522 Y142.918 E70.03231
G1 X133.517 Y143.041 E70.04253
G1 X133.184 Y143.816 E70.11265
G1 X133.106 Y144.048 E70.13301
G1 X132.989 Y144.269 E70.15383
G1 X132.778 Y144.820 E70.20293
G1 X132.723 Y144.899 E70.21091
G1 X131.967 Y146.641 E70.36879
G1 X130.650 Y148.212 E70.53928
G1 X128.783 Y149.442 E70.72521
G1 X126.819 Y150.030 E70.89570
G1 X120.124 Y150.031 E71.45233
G1 X120.017 Y150.075 E71.46198
G1 X116.097 Y153.995 E71.92290
G1 X110.179 Y153.995 E72.41504
G1 X110.102 Y154.016 E72.42164
G1 X95.984 Y162.487 E73.79071
G1 X94.151 Y162.995 E73.94884
G1 X88.303 Y162.995 E74.43512
G1 X86.347 Y161.039 E74.66509
G1 X86.240 Y160.995 E74.67473
G1 X80.303 Y160.995 E75.16841
G1 X76.205 Y156.897 E75.65025
G1 X76.205 Y143.103 E76.79729
G1 X78.187 Y141.121 E77.03034
G1 X78.187 Y140.879 E77.05043
G1 X76.205 Y138.897 E77.28347
G1 X76.205 Y125.103 E78.43051
G1 X80.271 Y121.037 E78.90861
G1 E76.90861 F2400.00000
G92 E0
G1 X84.590 Y121.561 F1800.000
G1 E2.00000 F2400.00000
G1 F1800
G1 X84.761 Y121.390 E2.02009
G1 X84.761 Y120.997 E2.05275
G1 X89.362 Y117.137 E2.55215
G1 X108.751 Y120.558 E4.18930
G1 X115.867 Y120.561 E4.78101
G1 X119.639 Y124.333 E5.22458
G1 X119.639 Y124.354 E5.22635
G1 X119.810 Y124.525 E5.24644
G1 X126.738 Y124.525 E5.82250
G1 X128.549 Y125.068 E5.97968
G1 X130.275 Y126.205 E6.15157
G1 X131.493 Y127.658 E6.30927
G1 X132.239 Y129.385 E6.46564
G1 X132.289 Y129.457 E6.47294
G1 X132.562 Y130.144 E6.53438
G1 X132.607 Y130.212 E6.54114
G1 X132.952 Y131.050 E6.61656
G1 X132.958 Y131.165 E6.62612
G1 X133.189 Y131.746 E6.67815
G1 X133.185 Y131.866 E6.68814
G1 X133.209 Y131.970 E6.69700
G1 X133.406 Y132.537 E6.74687
G1 X133.422 Y132.718 E6.76204
G1 X133.590 Y133.248 E6.80822
G1 X133.573 Y133.426 E6.82314
G1 X133.742 Y134.059 E6.87756
G1 X133.725 Y134.180 E6.88778
G1 X133.738 Y134.315 E6.89905
G1 X133.859 Y134.881 E6.94714
G1 X133.844 Y134.968 E6.95448
G1 X133.854 Y135.205 E6.97426
G1 X133.937 Y135.711 E7.01689
G1 X133.925 Y136.096 E7.04887
G1 X133.976 Y136.556 E7.08739
G1 X133.949 Y136.992 E7.12365
G1 X133.976 Y137.444 E7.16133
G1 X133.925 Y137.904 E7.19980
G1 X133.937 Y138.290 E7.23190
G1 X133.854 Y138.796 E7.27455
G1 X133.844 Y139.033 E7.29428
G1 X133.859 Y139.120 E7.30161
G1 X133.738 Y139.684 E7.34957
G1 X133.725 Y139.821 E7.36102
G1 X133.742 Y139.942 E7.37118
G1 X133.576 Y140.566 E7.42491
G1 X133.589 Y140.753 E7.44047
G1 X133.422 Y141.282 E7.48664
G1 X133.406 Y141.464 E7.50184
G1 X133.209 Y142.030 E7.55167
G1 X133.185 Y142.134 E7.56057
G1 X133.189 Y142.254 E7.57053
G1 X132.957 Y142.835 E7.62256
G1 X132.952 Y142.950 E7.63212
G1 X132.607 Y143.789 E7.70753
G1 X132.474 Y144.060 E7.73261
G1 X132.289 Y144.543 E7.77565
G1 X132.239 Y144.616 E7.78298
G1 X131.489 Y146.347 E7.93982
G1 X130.277 Y147.793 E8.09677
G1 X128.545 Y148.933 E8.26916
G1 X126.737 Y149.475 E8.42611
G1 X119.810 Y149.475 E9.00208
G1 X119.639 Y149.646 E9.02217
G1 X119.639 Y149.667 E9.02392
G1 X115.867 Y153.439 E9.46749
G1 X110.025 Y153.439 E9.95330
G1 X109.948 Y153.461 E9.95990
G1 X95.762 Y161.972 E11.33549
G1 X94.075 Y162.439 E11.48106
G1 X88.533 Y162.439 E11.94192
G1 X86.577 Y160.484 E12.17189
G1 X86.470 Y160.439 E12.18154
G1 X80.533 Y160.439 E12.67522
G1 X76.761 Y156.667 E13.11879
G1 X76.761 Y143.333 E14.22756
G1 X78.973 Y141.121 E14.48766
G1 X78.973 Y140.879 E14.50775
G1 X76.761 Y138.667 E14.76786
G1 X76.761 Y125.333 E15.87663
G1 X80.533 Y121.561 E16.32020
G1 X84.545 Y121.561 E16.65380
G1 X85.145 Y122.116 F1800.000
G1 F1800
G1 X85.316 Y121.945 E16.67389
G1 X85.316 Y121.256 E16.73121
G1 X89.520 Y117.729 E17.18752
G1 X108.703 Y121.114 E18.80718
G1 X115.637 Y121.116 E19.38379
G1 X119.084 Y124.563 E19.78909
G1 X119.084 Y124.910 E19.81792
G1 X119.255 Y125.080 E19.83802
G1 X126.657 Y125.080 E20.45349
G1 X128.311 Y125.577 E20.59711
G1 X129.902 Y126.624 E20.75550
G1 X131.015 Y127.953 E20.89960
G1 X131.755 Y129.668 E21.05498
G1 X131.800 Y129.734 E21.06163
G1 X131.959 Y130.149 E21.09851
G1 X132.386 Y131.141 E21.18836
G1 X132.410 Y131.292 E21.20102
G1 X132.622 Y131.824 E21.24866
G1 X132.616 Y131.884 E21.25367
G1 X132.675 Y132.126 E21.27438
G1 X132.837 Y132.593 E21.31550
G1 X132.849 Y132.740 E21.32776
G1 X133.020 Y133.289 E21.37560
G1 X133.009 Y133.397 E21.38466
G1 X133.031 Y133.544 E21.39695
G1 X133.172 Y134.077 E21.44284
G1 X133.156 Y134.158 E21.44969
G1 X133.188 Y134.401 E21.47005
G1 X133.289 Y134.875 E21.51038
G1 X133.272 Y134.949 E21.51671
G1 X133.303 Y135.280 E21.54436
